X: 3247
T: Behind The Bush In The Garden
R: jig
M: 6/8
K: Aminor
M:12/8
|:c2A AGE c2A AGE|G2A GED G2E EDE|
c2d e2a g2e d2e|c2A BAG A3 A2B:|
|:c2B c2d efe e2d|c2B c2d e2G G2B|
[1 c2B c2d efe e2d|cBA BAG A3 A2B:|
[2 c2d e2a g2e d2e|c2A BAG A3 A2B||

